X:3552
T:Lass of Gowrie, The
T:Lakes of Sligo, The
O:england
R:polka
D:Michael Tubridy: The Eagle's Whistle
M:2/4
L:1/8
K:D
FA AB|d>e dc|BA B/c/d|e>d ef|FA AB|de f>e|dB Af|1 ef/e/ dA:|2 ef/e/ d>e||
|:fa de|fa ag/f/|gb ef|gb ba|fa ef|de f>e|dB Af|1 ef/e/ d>e:|2 ef/e/ dA||
